SVG_Azure_All/Database Migration Service.svg

<?xml version="1.0" encoding="UTF-8" standalone="no"?>
<!-- Generated by Microsoft Visio, SVG Export Database Migration Service.svg Page-1 -->

<svg
   xmlns:dc="http://purl.org/dc/elements/1.1/"
   xmlns:cc="http://creativecommons.org/ns#"
   xmlns:rdf="http://www.w3.org/1999/02/22-rdf-syntax-ns#"
   xmlns:svg="http://www.w3.org/2000/svg"
   xmlns="http://www.w3.org/2000/svg"
   xmlns:sodipodi="http://sodipodi.sourceforge.net/DTD/sodipodi-0.dtd"
   xmlns:inkscape="http://www.inkscape.org/namespaces/inkscape"
   width="0.74805367in"
   height="0.78759867in"
   viewBox="0 0 53.859833 56.707245"
   xml:space="preserve"
   class="st8"
   version="1.1"
   id="svg74"
   sodipodi:docname="Database Migration Service.svg"
   style="font-size:12px;overflow:visible;color-interpolation-filters:sRGB;fill:none;fill-rule:evenodd;stroke-linecap:square;stroke-miterlimit:3"
   inkscape:version="0.92.5 (2060ec1f9f, 2020-04-08)"><metadata
   id="metadata78"><rdf:RDF><cc:Work
       rdf:about=""><dc:format>image/svg+xml</dc:format><dc:type
         rdf:resource="http://purl.org/dc/dcmitype/StillImage" /></cc:Work></rdf:RDF></metadata><sodipodi:namedview
   pagecolor="#ffffff"
   bordercolor="#666666"
   borderopacity="1"
   objecttolerance="10"
   gridtolerance="10"
   guidetolerance="10"
   inkscape:pageopacity="0"
   inkscape:pageshadow="2"
   inkscape:window-width="640"
   inkscape:window-height="480"
   id="namedview76"
   showgrid="false"
   inkscape:zoom="1.8365233"
   inkscape:cx="35.905404"
   inkscape:cy="18.900351"
   inkscape:window-x="0"
   inkscape:window-y="0"
   inkscape:window-maximized="0"
   inkscape:current-layer="svg74" />
	<style
   type="text/css"
   id="style2">
	<![CDATA[
		.st1 {fill:url(#grad0-5);stroke:none;stroke-linecap:butt;stroke-width:2.61615}
		.st2 {fill:url(#grad0-9);stroke:none;stroke-linecap:butt;stroke-width:2.61615}
		.st3 {fill:#e8e8e8}
		.st4 {stroke:none;stroke-linecap:butt;stroke-width:2.61615}
		.st5 {fill:#50e6ff}
		.st6 {fill:#32bedd;stroke:none;stroke-linecap:butt;stroke-width:2.61615}
		.st7 {fill:#f2f2f2;stroke:none;stroke-linecap:butt;stroke-width:2.61615}
		.st8 {fill:none;fill-rule:evenodd;font-size:12px;overflow:visible;stroke-linecap:square;stroke-miterlimit:3}
	]]>
	</style>

	<defs
   id="Patterns_And_Gradients">
		<linearGradient
   id="grad0-5"
   x1="0"
   y1="70.872943"
   x2="44.854051"
   y2="70.872943"
   gradientTransform="scale(1.2007834,0.83278967)"
   gradientUnits="userSpaceOnUse">
			<stop
   offset="0"
   stop-color="#0078d4"
   stop-opacity="1"
   id="stop4" />
			<stop
   offset="0.16"
   stop-color="#1380da"
   stop-opacity="1"
   id="stop6" />
			<stop
   offset="0.53"
   stop-color="#3c91e5"
   stop-opacity="1"
   id="stop8" />
			<stop
   offset="0.82"
   stop-color="#559cec"
   stop-opacity="1"
   id="stop10" />
			<stop
   offset="1"
   stop-color="#5ea0ef"
   stop-opacity="1"
   id="stop12" />
		</linearGradient>
		<linearGradient
   id="grad0-9"
   x1="0"
   y1="68.847828"
   x2="28.305227"
   y2="68.847828"
   gradientTransform="scale(1.0080209,0.99204292)"
   gradientUnits="userSpaceOnUse">
			<stop
   offset="0"
   stop-color="#32bedd"
   stop-opacity="1"
   id="stop15" />
			<stop
   offset="0.06"
   stop-color="#37c5e3"
   stop-opacity="1"
   id="stop17" />
			<stop
   offset="0.3"
   stop-color="#49ddf7"
   stop-opacity="1"
   id="stop19" />
			<stop
   offset="0.45"
   stop-color="#50e6ff"
   stop-opacity="1"
   id="stop21" />
			<stop
   offset="0.55"
   stop-color="#50e6ff"
   stop-opacity="1"
   id="stop23" />
			<stop
   offset="0.7"
   stop-color="#49ddf7"
   stop-opacity="1"
   id="stop25" />
			<stop
   offset="0.94"
   stop-color="#37c5e3"
   stop-opacity="1"
   id="stop27" />
			<stop
   offset="1"
   stop-color="#32bedd"
   stop-opacity="1"
   id="stop29" />
		</linearGradient>
	</defs>
	<g
   id="g72"
   transform="translate(-5.3859292,-5.657055)">
		<title
   id="title33">Page-1</title>
		<g
   id="group5782-1"
   transform="translate(5.38583,-34.0157)">
			<title
   id="title35">Database Migration Service</title>
			<g
   id="shape5783-2"
   transform="translate(0,-19.3495)">
				<title
   id="title37">path34</title>
				<path
   d="M 53.86,84.65 A 12.1505,11.8722 -180 0 0 43.35,73.27 15.2223,14.8736 -180 0 0 27.65,59.03 15.6319,15.2737 -180 0 0 12.7,69.04 14.4373,14.1065 -180 0 0 0,82.58 14.6762,14.34 -180 0 0 15.15,96.35 h 1.34 24.57 a 1.97958,1.93423 -180 0 0 0.65,0 12.2529,11.9722 -180 0 0 12.15,-11.7 z"
   class="st1"
   id="path39"
   inkscape:connector-curvature="0"
   style="fill:url(#grad0-5);stroke:none;stroke-width:2.6161499;stroke-linecap:butt" />
			</g>
			<g
   id="shape5784-6"
   transform="translate(12.6625)">
				<title
   id="title42">path36</title>
				<path
   d="M 14.27,72.73 C 6.42,72.73 0,70.73 0,68.3 v 23.64 c 0,2.44 6.31,4.4 14.1,4.44 h 0.17 c 7.88,0 14.26,-2 14.26,-4.44 V 68.3 c 0.14,2.43 -6.24,4.43 -14.26,4.43 z"
   class="st2"
   id="path44"
   inkscape:connector-curvature="0"
   style="fill:url(#grad0-9);stroke:none;stroke-width:2.6161499;stroke-linecap:butt" />
			</g>
			<g
   id="shape5785-10"
   transform="translate(12.799,-23.6443)">
				<title
   id="title47">path38</title>
				<path
   d="m 28.53,91.94 c 0,2.44 -6.38,4.44 -14.26,4.44 -7.89,0 -14.27,-2 -14.27,-4.44 0,-2.43 6.42,-4.43 14.13,-4.43 7.71,0 14.27,1.96 14.27,4.43 z"
   class="st3"
   id="path49"
   inkscape:connector-curvature="0"
   style="fill:#e8e8e8" />
				<path
   d="m 28.53,91.94 c 0,2.44 -6.38,4.44 -14.26,4.44 -7.89,0 -14.27,-2 -14.27,-4.44 0,-2.43 6.42,-4.43 14.13,-4.43 7.71,0 14.27,1.96 14.27,4.43"
   class="st4"
   id="path51"
   inkscape:connector-curvature="0"
   style="stroke:none;stroke-width:2.6161499;stroke-linecap:butt" />
			</g>
			<g
   id="shape5786-13"
   transform="translate(16.1438,-25.5118)">
				<title
   id="title54">path40</title>
				<path
   d="m 21.88,93.54 c 0,1.57 -4.92,2.84 -10.96,2.84 C 4.88,96.38 0,95.01 0,93.54 c 0,-1.46 4.91,-2.93 10.79,-2.93 5.87,0 10.95,1.27 10.95,2.83 z"
   class="st5"
   id="path56"
   inkscape:connector-curvature="0"
   style="fill:#50e6ff" />
				<path
   d="m 21.88,93.54 c 0,1.57 -4.92,2.84 -10.96,2.84 C 4.88,96.38 0,95.01 0,93.54 c 0,-1.46 4.91,-2.93 10.79,-2.93 5.87,0 10.95,1.27 10.95,2.83"
   class="st4"
   id="path58"
   inkscape:connector-curvature="0"
   style="stroke:none;stroke-width:2.6161499;stroke-linecap:butt" />
			</g>
			<g
   id="shape5787-16"
   transform="translate(18.2941,-25.6119)">
				<title
   id="title61">path42</title>
				<path
   d="M 8.64,94.21 A 29.25,28.5799 -180 0 0 0,95.28 a 28.6015,27.9463 -180 0 0 8.64,1.1 28.6698,28.013 -180 0 0 8.66,-1.1 29.3183,28.6466 -180 0 0 -8.66,-1.07 z"
   class="st6"
   id="path63"
   inkscape:connector-curvature="0"
   style="fill:#32bedd;stroke:none;stroke-width:2.6161499;stroke-linecap:butt" />
			</g>
			<g
   id="shape5788-18"
   transform="translate(17.6009,-29.3469)">
				<title
   id="title66">path44</title>
				<path
   d="m 0.04,84.04 8.84,-8.67 a 1.05805,1.03381 0 0 1 1.51,0 l 8.84,8.67 a 0.47783,0.466883 0 0 1 -0.341307,0.767023 L 13.46,84.81 a 0.47783,0.466883 -180 0 0 -0.477829,0.466882 L 12.98,96.01 a 0.341307,0.333488 0 0 1 -0.238916,0.366836 L 6.67,96.38 A 0.341307,0.333488 0 0 1 6.294563,96.013164 L 6.29,85.24 A 0.47783,0.466883 -180 0 0 5.914562,84.773117 L 0.39,84.77 A 0.47783,0.466883 0 0 1 0.048693,84.036328 Z"
   class="st7"
   id="path68"
   inkscape:connector-curvature="0"
   style="fill:#f2f2f2;stroke:none;stroke-width:2.6161499;stroke-linecap:butt" />
			</g>
		</g>
	</g>
</svg>

<?xml version="1.0" encoding="UTF-8" standalone="no"?>
<!DOCTYPE svg PUBLIC "-//W3C//DTD SVG 1.1//EN" "http://www.w3.org/Graphics/SVG/1.1/DTD/svg11.dtd">
<!-- Generated by Microsoft Visio, SVG Export Database Migration Service.svg Page-1 -->
<svg xmlns="http://www.w3.org/2000/svg" xmlns:xlink="http://www.w3.org/1999/xlink" xmlns:ev="http://www.w3.org/2001/xml-events"
		width="0.897638in" height="1.33858in" viewBox="0 0 64.6299 96.378" xml:space="preserve" color-interpolation-filters="sRGB"
		class="st8">
	<style type="text/css">
	<![CDATA[
		.st1 {fill:url(#grad0-5);stroke:none;stroke-linecap:butt;stroke-width:2.61615}
		.st2 {fill:url(#grad0-9);stroke:none;stroke-linecap:butt;stroke-width:2.61615}
		.st3 {fill:#e8e8e8}
		.st4 {stroke:none;stroke-linecap:butt;stroke-width:2.61615}
		.st5 {fill:#50e6ff}
		.st6 {fill:#32bedd;stroke:none;stroke-linecap:butt;stroke-width:2.61615}
		.st7 {fill:#f2f2f2;stroke:none;stroke-linecap:butt;stroke-width:2.61615}
		.st8 {fill:none;fill-rule:evenodd;font-size:12px;overflow:visible;stroke-linecap:square;stroke-miterlimit:3}
	]]>
	</style>

	<defs id="Patterns_And_Gradients">
		<linearGradient id="grad0-5" x1="0" y1="0" x2="1" y2="0" gradientTransform="rotate(-90 0.5 0.5)">
			<stop offset="0" stop-color="#0078d4" stop-opacity="1"/>
			<stop offset="0.16" stop-color="#1380da" stop-opacity="1"/>
			<stop offset="0.53" stop-color="#3c91e5" stop-opacity="1"/>
			<stop offset="0.82" stop-color="#559cec" stop-opacity="1"/>
			<stop offset="1" stop-color="#5ea0ef" stop-opacity="1"/>
		</linearGradient>
		<linearGradient id="grad0-9" x1="0" y1="0" x2="1" y2="0" gradientTransform="rotate(0 0.5 0.5)">
			<stop offset="0" stop-color="#32bedd" stop-opacity="1"/>
			<stop offset="0.06" stop-color="#37c5e3" stop-opacity="1"/>
			<stop offset="0.3" stop-color="#49ddf7" stop-opacity="1"/>
			<stop offset="0.45" stop-color="#50e6ff" stop-opacity="1"/>
			<stop offset="0.55" stop-color="#50e6ff" stop-opacity="1"/>
			<stop offset="0.7" stop-color="#49ddf7" stop-opacity="1"/>
			<stop offset="0.94" stop-color="#37c5e3" stop-opacity="1"/>
			<stop offset="1" stop-color="#32bedd" stop-opacity="1"/>
		</linearGradient>
	</defs>
	<g>
		<title>Page-1</title>
		<g id="group5663-1" transform="translate(5.38583,-34.0157)">
			<title>Database Migration Service</title>
			<g id="shape5664-2" transform="translate(0,-19.3495)">
				<title>path34</title>
				<path d="M53.86 84.65 A12.1505 11.8722 -180 0 0 43.35 73.27 A15.2223 14.8736 -180 0 0 27.65 59.03 A15.6319 15.2737
							 -180 0 0 12.7 69.04 A14.4373 14.1065 -180 0 0 -0 82.58 A14.6762 14.34 -180 0 0 15.15 96.35 L16.49 96.35
							 L41.06 96.35 A1.97958 1.93423 -180 0 0 41.71 96.35 A12.2529 11.9722 -180 0 0 53.86 84.65 Z"
						class="st1"/>
			</g>
			<g id="shape5665-6" transform="translate(12.6625,1.42109E-14)">
				<title>path36</title>
				<path d="M14.27 72.73 C6.42 72.73 0 70.73 0 68.3 L0 91.94 C0 94.38 6.31 96.34 14.1 96.38 L14.27 96.38 C22.15 96.38
							 28.53 94.38 28.53 91.94 L28.53 68.3 C28.67 70.73 22.29 72.73 14.27 72.73 Z" class="st2"/>
			</g>
			<g id="shape5666-10" transform="translate(12.799,-23.6443)">
				<title>path38</title>
				<path d="M28.53 91.94 C28.53 94.38 22.15 96.38 14.27 96.38 C6.38 96.38 0 94.38 0 91.94 C0 89.51 6.42 87.51 14.13
							 87.51 C21.84 87.51 28.4 89.47 28.4 91.94 L28.53 91.94 Z" class="st3"/>
				<path d="M28.53 91.94 C28.53 94.38 22.15 96.38 14.27 96.38 C6.38 96.38 0 94.38 0 91.94 C0 89.51 6.42 87.51 14.13
							 87.51 C21.84 87.51 28.4 89.47 28.4 91.94" class="st4"/>
			</g>
			<g id="shape5667-13" transform="translate(16.1438,-25.5118)">
				<title>path40</title>
				<path d="M21.88 93.54 C21.88 95.11 16.96 96.38 10.92 96.38 C4.88 96.38 0 95.01 0 93.54 C0 92.08 4.91 90.61 10.79
							 90.61 C16.66 90.61 21.74 91.88 21.74 93.44 L21.88 93.54 Z" class="st5"/>
				<path d="M21.88 93.54 C21.88 95.11 16.96 96.38 10.92 96.38 C4.88 96.38 0 95.01 0 93.54 C0 92.08 4.91 90.61 10.79
							 90.61 C16.66 90.61 21.74 91.88 21.74 93.44" class="st4"/>
			</g>
			<g id="shape5668-16" transform="translate(18.2941,-25.6119)">
				<title>path42</title>
				<path d="M8.64 94.21 A29.25 28.5799 -180 0 0 0 95.28 A28.6015 27.9463 -180 0 0 8.64 96.38 A28.6698 28.013 -180 0
							 0 17.3 95.28 A29.3183 28.6466 -180 0 0 8.64 94.21 Z" class="st6"/>
			</g>
			<g id="shape5669-18" transform="translate(17.6009,-29.3469)">
				<title>path44</title>
				<path d="M0.04 84.04 L8.88 75.37 A1.05805 1.03381 0 0 1 10.39 75.37 L19.23 84.04 a0.47783 0.466883 0 0 1 -0.341307
							 0.767023 L13.46 84.81 a0.47783 0.466883 -180 0 0 -0.477829 0.466882 L12.98 96.01 a0.341307 0.333488
							 0 0 1 -0.238916 0.366836 L6.67 96.38 a0.341307 0.333488 0 0 1 -0.375437 -0.366836 L6.29 85.24 a0.47783
							 0.466883 -180 0 0 -0.375438 -0.466883 L0.39 84.77 a0.47783 0.466883 0 0 1 -0.341307 -0.733672 Z"
						class="st7"/>
			</g>
		</g>
	</g>
</svg>
